X:1
T:James Gibb editions
T:Vergene bella - Dufay
T:#
%%score [ 1 2 3 ]
L:1/8
Q:1/4=120
M:6/4
K:C
V:1 treble nm="Alto" snm="A"
V:2 treble-8 nm="Tenor I" snm="T I"
V:3 treble-8 nm="Tenor II" snm="T II"
V:1
"^Francesco Petrarca\n(1304-74)""^Guillaume Dufay\n(1397-1474)" D2 D2 D2 A4 _B2 | %1
w: Ver- gi- ne bel- la,|
"^Vergine bella" (A2 G2) F2 E4 D2 | (EFGE GF D3 ^C2 B,) | D8 z4 | E4 A4 (G2 E2) | %5
w: che * di sol ves-|ti- * * * * * * * *|ta,|Co- ro- na\- *|
[M:6/4] (G2 ^F4- F6) | z2 G4 A4 B2 | (c2 B2) A2 (A2 G3 F | A2 z2 B2 c3 ABc | A2 BA GF E2 F2 D2 | %10
w: ta * *|di stel- le~al|som\- * mo so\- * *|||
 F2) E4- E6 | B,6 C4 C2 | B,6 z2 A,4 | C4 D2 (E2 FG A2- | A) G2 (EFG) (E2 D3 C) | E6 z4 (E2- | %16
w: * le *|Pia- ce- sti|sì, che'n|te sua lu\- * * *|* ce as\- * * co\- * *|se, A\-|
 FEFG A_BAG FEFD) | E12 | A6 G6 | F6 E4 D2 | (F2 E2) D2 (C2 B,4) | A,6 z2 z4 | E2 E2 E2 F4 F2 | %23
w: |mor|mi spin-|ge~~a dir di|te * pa- ro\- *|le:|Ma non so~~in- co- min-|
 (E4 A4) G4 | (A4 _B4) A4 | (G2 F2 E2 D4 C2) | D12- | A6 B4 B2 | (c2 B2 A4) G4 | %29
w: ciar * sen-|za * tu'a-|i- * * * *|ta,|E di co-|lui * * ch'a-|
 ^F4 F2 (G2 A2) _B2- | B (A2 F GADE G^FFE) | (G6 z4 G2 | A2 ^F2 GA _B2 A3 D | D2 z2 G2 F2 G2 E2 | %34
w: man- d'in te * si|* po\- * * * * * * * * *|se. *|||
 F12 | z2 A2 G2 _B A2 F G2 | _BAGF E2 z D EFGF | D E2 C2 A, z D D^C/D/ CB,/C/ | D12) || %39
w: |||||
[M:3/2] E4 E4 E4 | ^G8 G4 | A8 B4 | c4 B8 | (A6 ^G4 ^F2) | A12 | z12 |[M:3/2] A2 A2 B2 A2 G2 F2 | %47
w: In- vo- co|lei che|ben sem-|pre ris-|po\- * *|se,||Chi la chia- mò con fe-|
 E4 z8 | A2 A2 G2 F2 G2 E2 | (D4 A,2 B,4 C2 | A,2 D4 C2 E4 | A2 G4 F2 E4 | z2 D2 E2 ^C4 B,2 | %53
w: de:|Ver- gi- ne, s'a mer- ce-|de * * *||||
 D8) z4 | A,8 A,4 | _B,8 B,4 | A,12 | D8 D4 | ^C8 C4 | (D4 (3z2 z2 D2 (3:2:2E4 ^F2 | %60
w: |Mi- se-|ria~~es- tre-|ma|de l'hu-|ma- ne|co\- * * *|
 (3:2:2G4 A2 (3:2:2D2 G4 (3:2:2F4 E2 | (3G2 A2 _B2 (3z2 c2 A2 (3z2 G2 A2 | %62
w: ||
 (3F2 G2 A2 (3D2 E2 G2 (3^F2 G2 E2) | G4 z8 | A4 A4 G4 | B2 A4 F4 G2 | E4 D4 ^C4 | (D2 F4 D2 E4) | %68
w: |se,|Già mai ti|vol- se, al mio|pre- go t'in-|chi\- * * *|
 A,12 | z4 z4 z4 | A4 A2 G2 A2 B2 | (c6 B2 A4) ||[M:6/4] E12- | E8 z4 | (F4 GA) (B2 A2 GF) | %75
w: na,||Soc- cor- ri~a la mia|guer\- * *|ra:||Ben * * ch'i' * * *|
 E4 F2 (E2 D4) | C8 C4 | D4 D2 D2 D4 | (A,6 z4 D2 |[M:6/4] D2 E4 D3 ^CCB, | D z AG A_BAF AGFE | %81
w: si- a ter\- *|ra, E|tu del ciel Re-|gi\- *|||
 D2 CB, A,2 z D2 CDB, | CDEFG A2 _B GAGF | A2 E F2 G E2 F D2 E | %84
w: |||
 C2 z A, D2 FD E2[Q:1/4=119] F[Q:1/4=117]G | %85
w: |
[Q:1/4=116] _B[Q:1/4=115]A[Q:1/4=113]F[Q:1/4=112]A[Q:1/4=111] G[Q:1/4=109]E[Q:1/4=108]G[Q:1/4=107]F[Q:1/4=106] D[Q:1/4=105]^C[Q:1/4=103]D[Q:1/4=102]B,) | %86
w: |
[Q:1/4=102] D12 |] %87
w: na.|
V:2
 z4 z4 z4 | D2 D2 D2 A4 d2 | (c2 B4 A4) ^G2 | (A6 d6) | z2 (A2 F2 D2) E4 | %5
w: |Ver- gi- ne bel- la,|che * * di|sol *|ves\- * * ti-|
[M:6/4][K:treble-8] (D12- | c6 f6 | e6) z2 z2 d2 | f e2 cde (c2 d4 | D4 D2 A4 B2) | ^c12- | %11
w: ta,||* di|stel- le al som- mo so\- *||le|
 (d4 e4 f4) | z2 e4 d4 c2 | e4 A2 c2 B2 A2 | z2 (e2 dc) (B2 A4 | B4 A2) (G2 F2) E2 | (D12- | %17
w: Pia\- * *|ce- sti sì,|che'n te sua lu- ce|as\- * * co\- *|* * se, * A-|mor|
 A12-) | D4 D2 E4 E2 | D4 D2 C4 G2 | (D6 E6) | z2 e4 e4 d2 | (c2 B2 A2 D4) d2 | c6 d6 | %24
w: |mi spin- ge~~a dir|di te pa- ro-|le: *|Ma non so~~in-|co- * * * min-|ciar sen-|
 D4 d2 (e2 f2 e2 | d4 c2 d2) (_B4 | A12-) | z2 D4 G4 G2 | (A4 F2) z2 G4 | D4 D2 z2 d4 | %30
w: za tu'a- i\- * *|* * * ta,||E di co-|lui * ch'a-|man- d'in te|
 (e4 d2) (d4 c2) | (d12 | D6- D4 d2 | B2 c2 d2 z2 G2 A2 | D6- D4 A2 | G2 F2 E2 D4 C2 | %36
w: si * po\- *|se.|||||
 D2 A4 D2 z2 d2 | G2 A2 F2 D2 ^G4 | A12) ||[M:3/2][K:treble-8] (c8 A4) | E8 E4 | (F4 D4) G4 | %42
w: |||In\- *|vo- co|lei * che|
 E8 G4 | (A4 E8) | F2 D2 A2 G2 F2 E2 | (D4 A8 |[M:3/2][K:treble-8] e8 d4) | c4 d2 A2 B2 c2 | %48
w: ben ris-|po\- *|se, Chi la chia- mò con|fe\- *||de: Ver- gi- ne, s'a|
 d8 e4 | (f2 d4 f2 e4 | c2 A2 B2 c2 A2 G2 | C4 D4 E4 | G4 ^G8 | A12 | D12) | z2 d4 c2 d2 e2 | %56
w: mer- ce-|de * * *||||||Mi- se- ria es-|
 (f4 e2 d2) (c2 _B2) | A8 A4 | ^G8 G4 | (A4 D4 A4 | d8 ^c4 | d8 G4 | A4 B4) ^c4 | z2 (d4 B4) G2 | %64
w: tre\- * * ma *|de l'hu-|ma- ne|co\- * *|||* * se,|Già * mai|
 (D4 F4 E4) | e4 f2 d2 f2 e2 | c2 d2 B2 (A4 ^G2) | A4 z8 | d4 d2 c2 d2 e2 | (f6 e2 d4) | D12 | %71
w: ti * *|vol- se, al mi- o|pre- go t'in- chi\- *|na,|Soc- cor- ri~a la mia|guer\- * *|ra,|
 z2 F4 (F4 G2) ||[M:6/4] A12- | A8 z4 | D6- D4 d2 | (c2 B2) A2 (G4 D2) | F12- | _B4 A2 B4 G2 | %78
w: mia guer\- *|ra:||Ben * ch'i'|si\- * a ter\- *|ra,|* E tu del|
 (A2 D4- D6) |[M:6/4][K:treble-8] (B4 A4 ^G4 | A4 D2 z2 A2 A2 | D12 | A2) z2 (c2 f2 e2 d2 | %83
w: ciel * *|Re\- * *|||* gi\- * * *|
 f e2 c d2 A c2 d _B2 | z A F2 GF D2 AB c2 | d2 A2 B2 A2 ^G4 | A12) |] %87
w: ||* * * * na.||
V:3
 z4 z2 D2 D2 D2 | A4 A2 c4 _B2 | A2 G4 F2 (E4 | D12) | A6 B2 (c4- |[M:6/4][K:treble-8] d12 | %6
w: Ver- gi- ne|bel- la, che di|sol ves- ti- ta,||Co- ro- na\-||
 e6 d6 | A4 c4 _B4 | (A4 G2 A2 F2) G2 | A2 d4 c4 B2) | A12 | (G6 A6 | E6 F6 | E4) D2 (C2 D4 | %14
w: ta di|stel- le al|som\- * * * mo|so\- * * *|le|Pia\- *||* ce- sti *|
 E4) (A2 G2 F4 | E12 | (d12 | ^c12)) | z2 (d2 f2) z2 (e2 c2) | z2 (d2 A2) z2 (c2 B2) | (A6 ^G6 | %21
w: * sì, * *||A\-||mor * mi *|spin\- * ge~~a *|dir, *|
 A12) | A2 B2 c2 d4 d2 | (A6 _B6 | A4) G2 G2 F4 | G12- | (D12 | d12) | (c6 _B6 | A6 G6 | %30
w: |Ma non so~~in- co- min-|ciar *|* sen- za tu'a-|i-|ta,||po\- *||
 c4 B4 A4) | (G12- | ^F12- | G4 B2 A2 B2 ^c2 | A12 | d4 e2 f4 e2 | d2 e2 c2 d4 G2 | B2 A4 F2 E4 | %38
w: |se.|||||||
 D12) ||[M:3/2][K:treble-8] A4 A4 A4 | B8 B4 | A4 d8 | (e8 d4) | (c4 B8 | A8) z4 | %45
w: |In- vo- co|lei che|ben ris-|po\- *|se, *||
 d2 d2 e2 d2 c2 B2 |[M:3/2][K:treble-8] A4 z8 | A2 A2 G2 F2 G2 E2 | (D8 C4 | D8 E4 | F4 G2 A4 B2- | %51
w: Chi la chia- mò con fe-|de:|Ver- gi- ne, s'a mer- ce-|de\- *|||
 c4 B2 A4 G2 | F4 E8 | D12) | (F12 | G12 | D12 | F8) F4 | E8 E4 | D4 (d2 _B2) c2 A2 | (G4 _B4) A4 | %61
w: |||Mi\-|||* se-|ria es-|tre- ma * de l'hu-|ma\- * ne|
 (G4 F4 E4 | D4 G4 A4) | G12 | z2 (d4 c4) _B2 | (A4 D4) A4- | A2 G4 F2 E4 | (D8 ^C4) | D8 z4 | %69
w: co\- * *||se,|Già * mai|ti * vol\-|* se, al mio|pre\- *|go,|
 d4 d2 c2 d2 e2 | (f6 e2 d4 | A8 d4) ||[M:6/4] ^c12- | c8 z4 | d12 | (A6 _B6 | A12) | (G12 | %78
w: Soc- cor- ri~a la mia|guer\- * *||ra:||Ben|ch'i' *||sia|
 ^F12) |[M:6/4][K:treble-8] G4 A2 (F2 E4) | (D4 d4 c4 | d4) e2 (f2 d2 f2) | (e2 c2 e2) (d2 c2 _B2 | %83
w: |ter- ra, e *|tu * *|* del ciel * *|Re\- * * gi\- * *|
 A4 G2 A2 F2 G2 | A4 _B4 A4 | D4 G2 F2) (E4 | D12) |] %87
w: ||* * * na.||

